svg/material-icons/toys/materialiconsoutlined/20px.svg

<svg xmlns="http://www.w3.org/2000/svg" width="20" height="20" viewBox="0 0 20 20"><path d="m14.55 8.53-.83-2.49a2.256 2.256 0 0 0-2.13-1.54H8.41c-.97 0-1.83.62-2.13 1.54l-.55 1.63-1-1 .15-.15c.29-.29.29-.77 0-1.06s-.77-.29-1.06 0L2.47 6.82c-.29.29-.29.77 0 1.06.29.29.77.29 1.06 0l.14-.14.99.99C3.69 9.15 3 10.12 3 11.25c0 .98.51 1.83 1.28 2.32A2.25 2.25 0 0 0 6.5 15.5c.98 0 1.8-.63 2.11-1.5h2.78c.31.87 1.14 1.5 2.11 1.5 1.13 0 2.06-.84 2.22-1.93A2.74 2.74 0 0 0 17 11.25c0-1.41-1.08-2.57-2.45-2.72zM10.75 6h.84c.32 0 .61.21.71.51l.66 1.99h-2.21V6zm-3.05.51c.11-.3.39-.51.71-.51h.84v2.5H7.04l.66-1.99zM6.5 14c-.41 0-.75-.34-.75-.75s.34-.75.75-.75.75.34.75.75-.34.75-.75.75zm7 0c-.41 0-.75-.34-.75-.75s.34-.75.75-.75.75.34.75.75-.34.75-.75.75zm1.79-2.1c-.41-.54-1.06-.9-1.79-.9-.98 0-1.8.63-2.11 1.5H8.61C8.3 11.63 7.48 11 6.5 11c-.73 0-1.38.36-1.79.9-.12-.19-.21-.41-.21-.65 0-.69.56-1.25 1.25-1.25h8.5c.69 0 1.25.56 1.25 1.25 0 .24-.09.46-.21.65z"/></svg>

<svg xmlns="http://www.w3.org/2000/svg" enable-background="new 0 0 20 20" height="20" viewBox="0 0 20 20" width="20"><g display="none"><rect display="inline" fill="none" height="20" width="20" y="0"/></g><g><g><path d="M14.55,8.53l-0.83-2.49c-0.31-0.92-1.17-1.54-2.13-1.54H8.41c-0.97,0-1.83,0.62-2.13,1.54L5.73,7.67l-1-1l0.15-0.15 c0.29-0.29,0.29-0.77,0-1.06s-0.77-0.29-1.06,0L2.47,6.82c-0.29,0.29-0.29,0.77,0,1.06c0.29,0.29,0.77,0.29,1.06,0l0.14-0.14 l0.99,0.99C3.69,9.15,3,10.12,3,11.25c0,0.98,0.51,1.83,1.28,2.32c0.16,1.09,1.09,1.93,2.22,1.93c0.98,0,1.8-0.63,2.11-1.5h2.78 c0.31,0.87,1.14,1.5,2.11,1.5c1.13,0,2.06-0.84,2.22-1.93c0.77-0.49,1.28-1.34,1.28-2.32C17,9.84,15.92,8.68,14.55,8.53z M10.75,6 h0.84c0.32,0,0.61,0.21,0.71,0.51l0.66,1.99h-2.21V6z M7.7,6.51C7.81,6.21,8.09,6,8.41,6h0.84v2.5H7.04L7.7,6.51z M6.5,14 c-0.41,0-0.75-0.34-0.75-0.75S6.09,12.5,6.5,12.5s0.75,0.34,0.75,0.75S6.91,14,6.5,14z M13.5,14c-0.41,0-0.75-0.34-0.75-0.75 s0.34-0.75,0.75-0.75s0.75,0.34,0.75,0.75S13.91,14,13.5,14z M15.29,11.9c-0.41-0.54-1.06-0.9-1.79-0.9c-0.98,0-1.8,0.63-2.11,1.5 H8.61C8.3,11.63,7.48,11,6.5,11c-0.73,0-1.38,0.36-1.79,0.9c-0.12-0.19-0.21-0.41-0.21-0.65C4.5,10.56,5.06,10,5.75,10h8.5 c0.69,0,1.25,0.56,1.25,1.25C15.5,11.49,15.41,11.71,15.29,11.9z"/></g></g></svg>
